projects/seb-pictograms/svg/regular/46-Picto-Regular_black.svg

<svg xmlns="http://www.w3.org/2000/svg" viewBox="0 0 170 170"><path d="M96.5 68.4A17.5 17.5 0 11114 50.9a17.5 17.5 0 01-17.5 17.5zm0-29A11.5 11.5 0 10108 50.9a11.5 11.5 0 00-11.5-11.5zm25 55.5h-6a11.3 11.3 0 00-11.2-11.4H88.7a11.3 11.3 0 00-11.2 11.4h-6a17.4 17.4 0 0117.2-17.5h15.5a17.4 17.4 0 0117.3 17.5z"/><path d="M152.2 5H30.9a3 3 0 00-3 3v17.3a16.1 16.1 0 000 31.6v10.9a16.1 16.1 0 000 31.6v10.9a16.1 16.1 0 000 31.6V162a3 3 0 003 3h121.3a3 3 0 003-3V8a3 3 0 00-3-3zM20.8 41.1a10.1 10.1 0 017.1-9.7v19.4a10.1 10.1 0 01-7.1-9.7zm0 42.5a10.1 10.1 0 017.1-9.7v19.3a10.1 10.1 0 01-7.1-9.6zm0 42.5a10.1 10.1 0 017.1-9.7v19.3a10.1 10.1 0 01-7.1-9.6zM149.2 159H33.9v-42.6a10.1 10.1 0 017.1 9.7h6a16.1 16.1 0 00-13.1-15.8V73.9a10.1 10.1 0 017.1 9.7h6a16.1 16.1 0 00-13.1-15.8V31.4a10.1 10.1 0 017.1 9.7h6a16.1 16.1 0 00-13.1-15.8V11h115.3z"/><path d="M72.2 111.3H111v6H72.2zm0 18.9h21.4v6H72.2z"/></svg>

<svg id="PIKTO_REGULAR" xmlns="http://www.w3.org/2000/svg" viewBox="0 0 170 170"><title>regular_black</title><path d="M96.5,68.4A17.5,17.5,0,1,1,114,50.9,17.5,17.5,0,0,1,96.5,68.4Zm0-29A11.5,11.5,0,1,0,108,50.9,11.5,11.5,0,0,0,96.5,39.4Z"/><path d="M121.5,94.9h-6a11.3,11.3,0,0,0-11.2-11.4H88.7A11.3,11.3,0,0,0,77.5,94.9h-6A17.4,17.4,0,0,1,88.7,77.4h15.5A17.4,17.4,0,0,1,121.5,94.9Z"/><path d="M152.2,5H30.9a3,3,0,0,0-3,3V25.3a16.1,16.1,0,0,0,0,31.6V67.8a16.1,16.1,0,0,0,0,31.6v10.9a16.1,16.1,0,0,0,0,31.6V162a3,3,0,0,0,3,3H152.2a3,3,0,0,0,3-3V8A3,3,0,0,0,152.2,5ZM20.8,41.1a10.1,10.1,0,0,1,7.1-9.7V50.8A10.1,10.1,0,0,1,20.8,41.1Zm0,42.5a10.1,10.1,0,0,1,7.1-9.7V93.2A10.1,10.1,0,0,1,20.8,83.6Zm0,42.5a10.1,10.1,0,0,1,7.1-9.7v19.3A10.1,10.1,0,0,1,20.8,126.1ZM149.2,159H33.9V116.4a10.1,10.1,0,0,1,7.1,9.7h6a16.1,16.1,0,0,0-13.1-15.8V73.9A10.1,10.1,0,0,1,41,83.6h6A16.1,16.1,0,0,0,33.9,67.8V31.4A10.1,10.1,0,0,1,41,41.1h6A16.1,16.1,0,0,0,33.9,25.3V11H149.2Z"/><rect x="72.2" y="111.3" width="38.8" height="6"/><rect x="72.2" y="130.2" width="21.4" height="6"/></svg>
